images/best.svg

<svg height="81" viewBox="0 0 84 81" width="84" xmlns="http://www.w3.org/2000/svg"><g fill="none" fill-rule="evenodd" transform="translate(-13 -8)"><g fill-rule="nonzero"><path d="m91.2432799 46.3486287-7.9601691-7.1155909c-.3621877-.3242677-.8278576-.503174-1.3094478-.503174h-38.7033375c-3.4716287-7.6828051-11.1233413-12.7521554-19.4596285-12.7521554-11.8218462 0-21.43872552 9.824598-21.43872552 21.9007723 0 12.0771909 9.61687932 21.9017889 21.43773052 21.9017889 8.3362872 0 15.9879998-5.0693503 19.4596285-12.753172h5.3362984c.2995014 0 .5950227-.0670898.8636784-.2012695l3.2686444-2.8248614 3.2676495 2.8248614c.5472616.2693759 1.1820851.2693759 1.7273567 0l3.2686444-2.8248614 3.2706345 2.8248614c.5442766.2693759 1.1820851.2693759 1.7253667 0l3.2686444-2.8248614 3.2686445 2.8248614c.5462666.2693759 1.1820851.2693759 1.7273567 0l3.2686445-2.8248614 3.2686444 2.8248614c.2766159.1341797.5701471.2012695.8686535.2012695h.3054715c.4815902 0 .9472601-.1789063 1.3094478-.5031739l7.9601691-7.1155909c.4328342-.386275.6805945-.9433241.6805945-1.5298521s-.2477603-1.1435771-.6805945-1.529852zm-77.6773206 5.9106164c-2.9522926 0-5.35364632-2.4023271-5.35364632-5.3536464 0-2.9522926 2.40135372-5.3536463 5.35364632-5.3536463 2.9522927 0 5.3536464 2.4013537 5.3536464 5.3536463 0 2.9513193-2.4013537 5.3536464-5.3536464 5.3536464z" fill="#b9d9ff" stroke="#2470c8" stroke-width="2" transform="matrix(-.70710678 .70710678 .70710678 .70710678 46.630981 -19.315185)"/><path d="m56.8325202 82.5819395 7.2060822-2.9868217 3.1495653 6.8703476 7.3744902-18.4067203c-3.8314497-.3791338-7.4357884-1.595934-10.3622848-3.5166696z" fill="#b9d9ff" stroke="#2470c8" stroke-width="2"/><path d="m88.25 63c-3.5 2.4960052-7.6563072 3.9520626-12.25 4.1600087l8.75 21.8399913 3.7188072-8.1120713 8.5311928 3.5360617z" fill="#2470c8"/><path d="m94 49.5c0 9.7325354-8.23822 17.5-18.5 17.5s-18.5-7.7674646-18.5-17.5 8.23822-17.5 18.5-17.5 18.5 7.7674646 18.5 17.5z" fill="#b9d9ff" stroke="#2470c8" stroke-width="2"/></g><path d="m83.6997469 60.7540478-7.699977-5.2333715-7.6998619 5.2333715 3.300023-9.1016191-6.599931-4.5508096h7.699977l3.300023-9.1016191 3.300023 9.1016191h7.699977l-6.599931 4.5508096z" fill="#2470c8"/></g></svg>

<?xml version="1.0" encoding="UTF-8" standalone="no"?>
<svg width="84px" height="81px" viewBox="0 0 84 81" version="1.1" xmlns="http://www.w3.org/2000/svg" xmlns:xlink="http://www.w3.org/1999/xlink">
    <!-- Generator: Sketch 50.2 (55047) - http://www.bohemiancoding.com/sketch -->
    <title>best</title>
    <desc>Created with Sketch.</desc>
    <defs></defs>
    <g id="best" stroke="none" stroke-width="1" fill="none" fill-rule="evenodd">
        <g id="star" transform="translate(-13.000000, -8.000000)">
            <path d="M91.2432799,46.3486287 L83.2831108,39.2330378 C82.9209231,38.9087701 82.4552532,38.7298638 81.973663,38.7298638 L43.2703255,38.7298638 C39.7986968,31.0470587 32.1469842,25.9777084 23.810697,25.9777084 C11.9888508,25.9777084 2.37197148,35.8023064 2.37197148,47.8784807 C2.37197148,59.9556716 11.9888508,69.7802696 23.809702,69.7802696 C32.1459892,69.7802696 39.7977018,64.7109193 43.2693305,57.0270976 L48.6056289,57.0270976 C48.9051303,57.0270976 49.2006516,56.9600078 49.4693073,56.8258281 L52.7379517,54.0009667 L56.0056012,56.8258281 C56.5528628,57.095204 57.1876863,57.095204 57.7329579,56.8258281 L61.0016023,54.0009667 L64.2722368,56.8258281 C64.8165134,57.095204 65.4543219,57.095204 65.9976035,56.8258281 L69.2662479,54.0009667 L72.5348924,56.8258281 C73.081159,57.095204 73.7169775,57.095204 74.2622491,56.8258281 L77.5308936,54.0009667 L80.799538,56.8258281 C81.0761539,56.9600078 81.3696851,57.0270976 81.6681915,57.0270976 L81.973663,57.0270976 C82.4552532,57.0270976 82.9209231,56.8481913 83.2831108,56.5239237 L91.2432799,49.4083328 C91.6761141,49.0220578 91.9238744,48.4650087 91.9238744,47.8784807 C91.9238744,47.2919527 91.6761141,46.7349036 91.2432799,46.3486287 Z M13.5659593,52.2592451 C10.6136667,52.2592451 8.21231298,49.856918 8.21231298,46.9055987 C8.21231298,43.9533061 10.6136667,41.5519524 13.5659593,41.5519524 C16.518252,41.5519524 18.9196057,43.9533061 18.9196057,46.9055987 C18.9196057,49.856918 16.518252,52.2592451 13.5659593,52.2592451 Z" id="Shape" stroke="#2470C8" stroke-width="2" fill="#B9D9FF" fill-rule="nonzero" transform="translate(47.147923, 47.878989) scale(-1, 1) rotate(45.000000) translate(-47.147923, -47.878989) "></path>
            <path d="M56.8325202,82.5819395 L64.0386024,79.5951178 L67.1881677,86.4654654 L74.5626579,68.0587451 C70.7312082,67.6796113 67.1268695,66.4628111 64.2003731,64.5420755 L56.8325202,82.5819395 Z" id="Shape" stroke="#2470C8" stroke-width="2" fill="#B9D9FF" fill-rule="nonzero"></path>
            <path d="M88.25,63 C84.75,65.4960052 80.5936928,66.9520626 76,67.1600087 L84.75,89 L88.4688072,80.8879287 L97,84.4239904 L88.25,63 Z" id="Shape" fill="#2470C8" fill-rule="nonzero"></path>
            <path d="M94,49.5 C94,59.2325354 85.76178,67 75.5,67 C65.23822,67 57,59.2325354 57,49.5 C57,39.7674646 65.23822,32 75.5,32 C85.76178,32 94,39.7674646 94,49.5 Z" id="Shape" stroke="#2470C8" stroke-width="2" fill="#B9D9FF" fill-rule="nonzero"></path>
            <polygon id="Path" fill="#2470C8" points="83.6997469 60.7540478 75.9997699 55.5206763 68.299908 60.7540478 71.599931 51.6524287 65 47.1016191 72.699977 47.1016191 76 38 79.300023 47.1016191 87 47.1016191 80.400069 51.6524287"></polygon>
        </g>
    </g>
</svg>
